X: 8328
T: Cota Mor Ealasaid
R: reel
M: 4/4
K: Amixolydian
|:f|edc2 dBBd|cAA2 g2fa|edc2 dBBd|egdB A2A:|
|:d|c2ce dBBd|cAA2 g2fa|c2ce dBBd|egdB A2A:|

